X:474
T:My Nannie's Awa'
D:Wallochmore Ceilidh Band, Looking for a Partner
Z:Nigel Gatherer
R:waltz
M:3/4
L:1/4
K:D
A/G/ | 
F>GA | ABd | f>ed | d2e | f>ed | dBA | Bee  |
e2 d/e/ | fdd  | f/e/ dd | dBd | A2F | G>AB |
Add | e>de | f2 F | G>AB | Add | eaf | d2  |]
<end>
<start>
